symbols/web/filter_9/materialsymbolssharp/filter_9_gradN25_20px.svg

<svg xmlns="http://www.w3.org/2000/svg" height="20" width="20"><path d="M10.062 12.354h4V4.375H9.25v4.792h3.167v1.541h-2.355Zm2.355-4.833h-1.5v-1.5h1.5Zm-7.25 7.312V1.875h12.958v12.958Zm1.645-1.645h9.667V3.521H6.812Zm-4.937 4.937V5.167h1.646v11.312h11.312v1.646Zm4.937-4.937V3.521v9.667Z"/></svg>

<svg xmlns="http://www.w3.org/2000/svg" height="20" width="20"><path d="M10.062 12.354H14.062V4.375H9.25V9.167H12.417V10.708H10.062ZM12.417 7.521H10.917V6.021H12.417ZM5.167 14.833V1.875H18.125V14.833ZM6.812 13.188H16.479V3.521H6.812ZM1.875 18.125V5.167H3.521V16.479H14.833V18.125ZM6.812 13.188V3.521V13.188Z"/></svg>
